images/4850.svg

<?xml version="1.0" encoding="UTF-8"?>
<svg xmlns="http://www.w3.org/2000/svg" xmlns:xlink="http://www.w3.org/1999/xlink" width="300pt" height="300pt" viewBox="0 0 300 300" version="1.1">
<defs>
<g>
<symbol overflow="visible" id="glyph0-0">
<path style="stroke:none;" d="M 0.453125 1.59375 L 0.453125 -6.34375 L 4.953125 -6.34375 L 4.953125 1.59375 Z M 0.953125 1.09375 L 4.453125 1.09375 L 4.453125 -5.84375 L 0.953125 -5.84375 Z M 0.953125 1.09375 "/>
</symbol>
<symbol overflow="visible" id="glyph0-1">
<path style="stroke:none;" d="M 0.890625 -6.5625 L 2.078125 -6.5625 L 4.984375 -1.078125 L 4.984375 -6.5625 L 5.84375 -6.5625 L 5.84375 0 L 4.65625 0 L 1.75 -5.484375 L 1.75 0 L 0.890625 0 Z M 0.890625 -6.5625 "/>
</symbol>
<symbol overflow="visible" id="glyph0-2">
<path style="stroke:none;" d="M 3.546875 -5.953125 C 2.898438 -5.953125 2.382812 -5.710938 2 -5.234375 C 1.625 -4.753906 1.4375 -4.101562 1.4375 -3.28125 C 1.4375 -2.445312 1.625 -1.789062 2 -1.3125 C 2.382812 -0.832031 2.898438 -0.59375 3.546875 -0.59375 C 4.191406 -0.59375 4.703125 -0.832031 5.078125 -1.3125 C 5.453125 -1.789062 5.640625 -2.445312 5.640625 -3.28125 C 5.640625 -4.101562 5.453125 -4.753906 5.078125 -5.234375 C 4.703125 -5.710938 4.191406 -5.953125 3.546875 -5.953125 Z M 3.546875 -6.6875 C 4.460938 -6.6875 5.195312 -6.375 5.75 -5.75 C 6.300781 -5.132812 6.578125 -4.3125 6.578125 -3.28125 C 6.578125 -2.238281 6.300781 -1.410156 5.75 -0.796875 C 5.195312 -0.179688 4.460938 0.125 3.546875 0.125 C 2.617188 0.125 1.878906 -0.179688 1.328125 -0.796875 C 0.773438 -1.410156 0.5 -2.238281 0.5 -3.28125 C 0.5 -4.3125 0.773438 -5.132812 1.328125 -5.75 C 1.878906 -6.375 2.617188 -6.6875 3.546875 -6.6875 Z M 3.546875 -6.6875 "/>
</symbol>
</g>
</defs>
<g id="surface51865">
<rect x="0" y="0" width="300" height="300" style="fill:rgb(100%,100%,100%);fill-opacity:1;stroke:none;"/>
<path style="fill:none;stroke-width:1.2;stroke-linecap:butt;stroke-linejoin:miter;stroke:rgb(0%,0%,0%);stroke-opacity:1;stroke-miterlimit:10;" d="M 169.300781 114.582031 L 192.023438 122.449219 "/>
<path style="fill:none;stroke-width:1.2;stroke-linecap:butt;stroke-linejoin:miter;stroke:rgb(0%,0%,100%);stroke-opacity:1;stroke-miterlimit:10;" d="M 151.121094 130.328125 L 160.210938 122.457031 "/>
<path style="fill:none;stroke-width:1.2;stroke-linecap:butt;stroke-linejoin:miter;stroke:rgb(0%,0%,0%);stroke-opacity:1;stroke-miterlimit:10;" d="M 160.210938 122.457031 L 169.300781 114.582031 "/>
<path style="fill:none;stroke-width:1.2;stroke-linecap:butt;stroke-linejoin:miter;stroke:rgb(0%,0%,0%);stroke-opacity:1;stroke-miterlimit:10;" d="M 192.023438 122.449219 L 194.296875 134.257812 "/>
<path style="fill:none;stroke-width:1.2;stroke-linecap:butt;stroke-linejoin:miter;stroke:rgb(0%,0%,100%);stroke-opacity:1;stroke-miterlimit:10;" d="M 194.296875 134.257812 L 196.574219 146.066406 "/>
<path style="fill:none;stroke-width:1.2;stroke-linecap:butt;stroke-linejoin:miter;stroke:rgb(0%,0%,100%);stroke-opacity:1;stroke-miterlimit:10;" d="M 196.574219 146.066406 L 187.484375 153.9375 "/>
<path style="fill:none;stroke-width:1.2;stroke-linecap:butt;stroke-linejoin:miter;stroke:rgb(0%,0%,0%);stroke-opacity:1;stroke-miterlimit:10;" d="M 187.484375 153.9375 L 178.394531 161.8125 "/>
<path style="fill:none;stroke-width:1.2;stroke-linecap:butt;stroke-linejoin:miter;stroke:rgb(0%,0%,100%);stroke-opacity:1;stroke-miterlimit:10;" d="M 196.574219 146.066406 L 207.9375 150 "/>
<path style="fill:none;stroke-width:1.2;stroke-linecap:butt;stroke-linejoin:miter;stroke:rgb(0%,0%,0%);stroke-opacity:1;stroke-miterlimit:10;" d="M 207.9375 150 L 219.296875 153.933594 "/>
<path style=" stroke:none;fill-rule:nonzero;fill:rgb(100%,100%,100%);fill-opacity:1;" d="M 193.574219 140.566406 L 200.574219 140.566406 L 200.574219 151.566406 L 193.574219 151.566406 Z M 193.574219 140.566406 "/>
<g style="fill:rgb(0%,0%,100%);fill-opacity:1;">
  <use xlink:href="#glyph0-1" x="193.574219" y="149.229492"/>
</g>
<path style="fill:none;stroke-width:1.2;stroke-linecap:butt;stroke-linejoin:miter;stroke:rgb(0%,0%,0%);stroke-opacity:1;stroke-miterlimit:10;" d="M 178.394531 161.8125 L 155.671875 153.945312 "/>
<path style="fill:none;stroke-width:1.2;stroke-linecap:butt;stroke-linejoin:miter;stroke:rgb(0%,0%,0%);stroke-opacity:1;stroke-miterlimit:10;" d="M 155.671875 153.945312 L 153.394531 142.136719 "/>
<path style="fill:none;stroke-width:1.2;stroke-linecap:butt;stroke-linejoin:miter;stroke:rgb(0%,0%,100%);stroke-opacity:1;stroke-miterlimit:10;" d="M 153.394531 142.136719 L 151.121094 130.328125 "/>
<path style="fill:none;stroke-width:1.2;stroke-linecap:butt;stroke-linejoin:miter;stroke:rgb(0%,0%,100%);stroke-opacity:1;stroke-miterlimit:10;" d="M 151.121094 130.328125 L 139.757812 126.394531 "/>
<path style="fill:none;stroke-width:1.2;stroke-linecap:butt;stroke-linejoin:miter;stroke:rgb(0%,0%,0%);stroke-opacity:1;stroke-miterlimit:10;" d="M 139.757812 126.394531 L 128.394531 122.460938 "/>
<path style=" stroke:none;fill-rule:nonzero;fill:rgb(100%,100%,100%);fill-opacity:1;" d="M 148.121094 124.828125 L 155.121094 124.828125 L 155.121094 135.828125 L 148.121094 135.828125 Z M 148.121094 124.828125 "/>
<g style="fill:rgb(0%,0%,100%);fill-opacity:1;">
  <use xlink:href="#glyph0-1" x="148.121094" y="133.491211"/>
</g>
<path style="fill:none;stroke-width:1.2;stroke-linecap:butt;stroke-linejoin:miter;stroke:rgb(0%,0%,0%);stroke-opacity:1;stroke-miterlimit:10;" d="M 128.394531 122.460938 L 110.21875 138.207031 "/>
<path style="fill:none;stroke-width:1.2;stroke-linecap:butt;stroke-linejoin:miter;stroke:rgb(0%,0%,0%);stroke-opacity:1;stroke-miterlimit:10;" d="M 110.21875 138.207031 L 87.492188 130.339844 "/>
<path style="fill:none;stroke-width:1.2;stroke-linecap:butt;stroke-linejoin:miter;stroke:rgb(0%,0%,0%);stroke-opacity:1;stroke-miterlimit:10;" d="M 106.09375 142.765625 L 87.914062 136.472656 "/>
<path style="fill:none;stroke-width:1.2;stroke-linecap:butt;stroke-linejoin:miter;stroke:rgb(0%,0%,0%);stroke-opacity:1;stroke-miterlimit:10;" d="M 114.765625 161.820312 L 110.21875 138.207031 "/>
<path style="fill:none;stroke-width:1.2;stroke-linecap:butt;stroke-linejoin:miter;stroke:rgb(0%,0%,0%);stroke-opacity:1;stroke-miterlimit:10;" d="M 87.492188 130.339844 L 69.316406 146.085938 "/>
<path style="fill:none;stroke-width:1.2;stroke-linecap:butt;stroke-linejoin:miter;stroke:rgb(0%,0%,0%);stroke-opacity:1;stroke-miterlimit:10;" d="M 69.316406 146.085938 L 73.863281 169.699219 "/>
<path style="fill:none;stroke-width:1.2;stroke-linecap:butt;stroke-linejoin:miter;stroke:rgb(0%,0%,0%);stroke-opacity:1;stroke-miterlimit:10;" d="M 64.214844 149.515625 L 67.851562 168.410156 "/>
<path style="fill:none;stroke-width:1.2;stroke-linecap:butt;stroke-linejoin:miter;stroke:rgb(100%,0%,0%);stroke-opacity:1;stroke-miterlimit:10;" d="M 45.449219 143.113281 L 57.382812 144.597656 "/>
<path style="fill:none;stroke-width:1.2;stroke-linecap:butt;stroke-linejoin:miter;stroke:rgb(0%,0%,0%);stroke-opacity:1;stroke-miterlimit:10;" d="M 57.382812 144.597656 L 69.316406 146.085938 "/>
<path style="fill:none;stroke-width:1.2;stroke-linecap:butt;stroke-linejoin:miter;stroke:rgb(0%,0%,0%);stroke-opacity:1;stroke-miterlimit:10;" d="M 73.863281 169.699219 L 96.589844 177.570312 "/>
<path style="fill:none;stroke-width:1.2;stroke-linecap:butt;stroke-linejoin:miter;stroke:rgb(0%,0%,0%);stroke-opacity:1;stroke-miterlimit:10;" d="M 73.863281 169.699219 L 63.335938 175.511719 "/>
<path style="fill:none;stroke-width:1.2;stroke-linecap:butt;stroke-linejoin:miter;stroke:rgb(100%,0%,0%);stroke-opacity:1;stroke-miterlimit:10;" d="M 63.335938 175.511719 L 52.808594 181.324219 "/>
<path style="fill:none;stroke-width:1.2;stroke-linecap:butt;stroke-linejoin:miter;stroke:rgb(0%,0%,0%);stroke-opacity:1;stroke-miterlimit:10;" d="M 96.589844 177.570312 L 114.765625 161.820312 "/>
<path style="fill:none;stroke-width:1.2;stroke-linecap:butt;stroke-linejoin:miter;stroke:rgb(0%,0%,0%);stroke-opacity:1;stroke-miterlimit:10;" d="M 94.703125 171.71875 L 109.246094 159.121094 "/>
<path style="fill:none;stroke-width:1.2;stroke-linecap:butt;stroke-linejoin:miter;stroke:rgb(100%,0%,0%);stroke-opacity:1;stroke-miterlimit:10;" d="M 52.808594 181.324219 L 44.03125 173.109375 "/>
<path style="fill:none;stroke-width:1.2;stroke-linecap:butt;stroke-linejoin:miter;stroke:rgb(0%,0%,0%);stroke-opacity:1;stroke-miterlimit:10;" d="M 44.03125 173.109375 L 35.25 164.890625 "/>
<path style=" stroke:none;fill-rule:nonzero;fill:rgb(100%,100%,100%);fill-opacity:1;" d="M 48.808594 175.824219 L 56.808594 175.824219 L 56.808594 186.824219 L 48.808594 186.824219 Z M 48.808594 175.824219 "/>
<g style="fill:rgb(100%,0%,0%);fill-opacity:1;">
  <use xlink:href="#glyph0-2" x="48.808594" y="184.487305"/>
</g>
<path style="fill:none;stroke-width:1.2;stroke-linecap:butt;stroke-linejoin:miter;stroke:rgb(0%,0%,0%);stroke-opacity:1;stroke-miterlimit:10;" d="M 35.25 164.890625 L 40.351562 154.003906 "/>
<path style="fill:none;stroke-width:1.2;stroke-linecap:butt;stroke-linejoin:miter;stroke:rgb(100%,0%,0%);stroke-opacity:1;stroke-miterlimit:10;" d="M 40.351562 154.003906 L 45.449219 143.113281 "/>
<path style=" stroke:none;fill-rule:nonzero;fill:rgb(100%,100%,100%);fill-opacity:1;" d="M 41.449219 137.613281 L 49.449219 137.613281 L 49.449219 148.613281 L 41.449219 148.613281 Z M 41.449219 137.613281 "/>
<g style="fill:rgb(100%,0%,0%);fill-opacity:1;">
  <use xlink:href="#glyph0-2" x="41.449219" y="146.276367"/>
</g>
<path style="fill:none;stroke-width:1.2;stroke-linecap:butt;stroke-linejoin:miter;stroke:rgb(0%,0%,0%);stroke-opacity:1;stroke-miterlimit:10;" d="M 219.296875 153.933594 L 221.574219 165.742188 "/>
<path style="fill:none;stroke-width:1.2;stroke-linecap:butt;stroke-linejoin:miter;stroke:rgb(0%,0%,100%);stroke-opacity:1;stroke-miterlimit:10;" d="M 221.574219 165.742188 L 223.847656 177.550781 "/>
<path style="fill:none;stroke-width:1.2;stroke-linecap:butt;stroke-linejoin:miter;stroke:rgb(0%,0%,0%);stroke-opacity:1;stroke-miterlimit:10;" d="M 225.308594 155.226562 L 227.128906 164.671875 "/>
<path style="fill:none;stroke-width:1.2;stroke-linecap:butt;stroke-linejoin:miter;stroke:rgb(0%,0%,100%);stroke-opacity:1;stroke-miterlimit:10;" d="M 227.128906 164.671875 L 228.949219 174.117188 "/>
<path style="fill:none;stroke-width:1.2;stroke-linecap:butt;stroke-linejoin:miter;stroke:rgb(0%,0%,100%);stroke-opacity:1;stroke-miterlimit:10;" d="M 237.476562 138.1875 L 228.386719 146.0625 "/>
<path style="fill:none;stroke-width:1.2;stroke-linecap:butt;stroke-linejoin:miter;stroke:rgb(0%,0%,0%);stroke-opacity:1;stroke-miterlimit:10;" d="M 228.386719 146.0625 L 219.296875 153.933594 "/>
<path style="fill:none;stroke-width:1.2;stroke-linecap:butt;stroke-linejoin:miter;stroke:rgb(0%,0%,100%);stroke-opacity:1;stroke-miterlimit:10;" d="M 223.847656 177.550781 L 235.210938 181.484375 "/>
<path style="fill:none;stroke-width:1.2;stroke-linecap:butt;stroke-linejoin:miter;stroke:rgb(0%,0%,0%);stroke-opacity:1;stroke-miterlimit:10;" d="M 235.210938 181.484375 L 246.574219 185.417969 "/>
<path style=" stroke:none;fill-rule:nonzero;fill:rgb(100%,100%,100%);fill-opacity:1;" d="M 220.847656 172.050781 L 227.847656 172.050781 L 227.847656 183.050781 L 220.847656 183.050781 Z M 220.847656 172.050781 "/>
<g style="fill:rgb(0%,0%,100%);fill-opacity:1;">
  <use xlink:href="#glyph0-1" x="220.847656" y="180.713867"/>
</g>
<path style="fill:none;stroke-width:1.2;stroke-linecap:butt;stroke-linejoin:miter;stroke:rgb(0%,0%,0%);stroke-opacity:1;stroke-miterlimit:10;" d="M 246.574219 185.417969 L 264.75 169.671875 "/>
<path style="fill:none;stroke-width:1.2;stroke-linecap:butt;stroke-linejoin:miter;stroke:rgb(0%,0%,0%);stroke-opacity:1;stroke-miterlimit:10;" d="M 244.683594 179.566406 L 259.226562 166.96875 "/>
<path style="fill:none;stroke-width:1.2;stroke-linecap:butt;stroke-linejoin:miter;stroke:rgb(0%,0%,0%);stroke-opacity:1;stroke-miterlimit:10;" d="M 264.75 169.671875 L 260.203125 146.054688 "/>
<path style="fill:none;stroke-width:1.2;stroke-linecap:butt;stroke-linejoin:miter;stroke:rgb(0%,0%,0%);stroke-opacity:1;stroke-miterlimit:10;" d="M 260.203125 146.054688 L 248.839844 142.121094 "/>
<path style="fill:none;stroke-width:1.2;stroke-linecap:butt;stroke-linejoin:miter;stroke:rgb(0%,0%,100%);stroke-opacity:1;stroke-miterlimit:10;" d="M 248.839844 142.121094 L 237.476562 138.1875 "/>
<path style="fill:none;stroke-width:1.2;stroke-linecap:butt;stroke-linejoin:miter;stroke:rgb(0%,0%,0%);stroke-opacity:1;stroke-miterlimit:10;" d="M 256.078125 150.617188 L 246.988281 147.46875 "/>
<path style="fill:none;stroke-width:1.2;stroke-linecap:butt;stroke-linejoin:miter;stroke:rgb(0%,0%,100%);stroke-opacity:1;stroke-miterlimit:10;" d="M 246.988281 147.46875 L 237.898438 144.320312 "/>
<path style=" stroke:none;fill-rule:nonzero;fill:rgb(100%,100%,100%);fill-opacity:1;" d="M 234.476562 132.6875 L 241.476562 132.6875 L 241.476562 143.6875 L 234.476562 143.6875 Z M 234.476562 132.6875 "/>
<g style="fill:rgb(0%,0%,100%);fill-opacity:1;">
  <use xlink:href="#glyph0-1" x="234.476562" y="141.350586"/>
</g>
</g>
</svg>

<svg xmlns="http://www.w3.org/2000/svg" xmlns:xlink="http://www.w3.org/1999/xlink" width="300pt" height="300pt" viewBox="0 0 300 300"><defs><symbol overflow="visible"><path d="M.453 1.594v-7.938h4.5v7.938zm.5-.5h3.5v-6.938h-3.5zm0 0"/></symbol><symbol overflow="visible" id="a"><path d="M.89-6.563H2.08l2.906 5.485v-5.484h.86V0H4.656L1.75-5.484V0H.89zm0 0"/></symbol><symbol overflow="visible" id="b"><path d="M3.547-5.953c-.65 0-1.164.242-1.547.72-.375.48-.563 1.13-.563 1.952 0 .835.188 1.49.563 1.967.383.48.898.72 1.547.72.644 0 1.156-.24 1.53-.72.376-.476.564-1.132.564-1.968 0-.822-.187-1.474-.562-1.954-.375-.477-.887-.72-1.53-.72zm0-.734c.914 0 1.648.312 2.203.937.55.617.828 1.438.828 2.47 0 1.042-.277 1.87-.828 2.483-.555.617-1.29.922-2.203.922-.93 0-1.668-.305-2.22-.922C.774-1.41.5-2.237.5-3.28c0-1.033.273-1.853.828-2.47.55-.625 1.29-.938 2.22-.938zm0 0"/></symbol></defs><g><path fill="#fff" d="M0 0h300v300H0z"/><path d="M169.3 114.582l22.723 7.867" stroke-width="1.2" stroke="#000" stroke-miterlimit="10" fill="none"/><path d="M151.12 130.328l9.09-7.87" stroke-width="1.2" stroke="#00f" stroke-miterlimit="10" fill="none"/><path d="M160.21 122.457l9.09-7.875M192.023 122.45l2.274 11.808" stroke-width="1.2" stroke="#000" stroke-miterlimit="10" fill="none"/><path d="M194.297 134.258l2.277 11.808M196.574 146.066l-9.09 7.87" stroke-width="1.2" stroke="#00f" stroke-miterlimit="10" fill="none"/><path d="M187.484 153.938l-9.09 7.875" stroke-width="1.2" stroke="#000" stroke-miterlimit="10" fill="none"/><path d="M196.574 146.066L207.937 150" stroke-width="1.2" stroke="#00f" stroke-miterlimit="10" fill="none"/><path d="M207.938 150l11.36 3.934" stroke-width="1.2" stroke="#000" stroke-miterlimit="10" fill="none"/><path d="M193.574 140.566h7v11h-7zm0 0" fill="#fff"/><use xlink:href="#a" x="193.574" y="149.229" fill="#00f"/><path d="M178.395 161.813l-22.723-7.868M155.672 153.945l-2.277-11.808" stroke-width="1.2" stroke="#000" stroke-miterlimit="10" fill="none"/><path d="M153.395 142.137l-2.274-11.81M151.12 130.328l-11.362-3.933" stroke-width="1.2" stroke="#00f" stroke-miterlimit="10" fill="none"/><path d="M139.758 126.395l-11.363-3.934" stroke-width="1.2" stroke="#000" stroke-miterlimit="10" fill="none"/><path d="M148.12 124.828h7v11h-7zm0 0" fill="#fff"/><use xlink:href="#a" x="148.121" y="133.491" fill="#00f"/><path d="M128.395 122.46l-18.176 15.747M110.22 138.207L87.49 130.34M106.094 142.766l-18.18-6.293M114.766 161.82l-4.547-23.613M87.492 130.34l-18.176 15.746M69.316 146.086l4.547 23.613M64.215 149.516l3.637 18.894" stroke-width="1.2" stroke="#000" stroke-miterlimit="10" fill="none"/><path d="M45.45 143.113l11.933 1.485" stroke-width="1.2" stroke="#f00" stroke-miterlimit="10" fill="none"/><path d="M57.383 144.598l11.933 1.488M73.863 169.7l22.727 7.87M73.863 169.7l-10.527 5.812" stroke-width="1.2" stroke="#000" stroke-miterlimit="10" fill="none"/><path d="M63.336 175.512l-10.527 5.812" stroke-width="1.2" stroke="#f00" stroke-miterlimit="10" fill="none"/><path d="M96.59 177.57l18.176-15.75M94.703 171.72l14.543-12.6" stroke-width="1.2" stroke="#000" stroke-miterlimit="10" fill="none"/><path d="M52.81 181.324l-8.78-8.215" stroke-width="1.2" stroke="#f00" stroke-miterlimit="10" fill="none"/><path d="M44.03 173.11l-8.78-8.22" stroke-width="1.2" stroke="#000" stroke-miterlimit="10" fill="none"/><path d="M48.81 175.824h8v11h-8zm0 0" fill="#fff"/><use xlink:href="#b" x="48.809" y="184.487" fill="#f00"/><path d="M35.25 164.89l5.102-10.886" stroke-width="1.2" stroke="#000" stroke-miterlimit="10" fill="none"/><path d="M40.352 154.004l5.097-10.89" stroke-width="1.2" stroke="#f00" stroke-miterlimit="10" fill="none"/><path d="M41.45 137.613h8v11h-8zm0 0" fill="#fff"/><use xlink:href="#b" x="41.449" y="146.276" fill="#f00"/><path d="M219.297 153.934l2.277 11.808" stroke-width="1.2" stroke="#000" stroke-miterlimit="10" fill="none"/><path d="M221.574 165.742l2.274 11.81" stroke-width="1.2" stroke="#00f" stroke-miterlimit="10" fill="none"/><path d="M225.31 155.227l1.82 9.445" stroke-width="1.2" stroke="#000" stroke-miterlimit="10" fill="none"/><path d="M227.13 164.672l1.82 9.445M237.477 138.188l-9.09 7.875" stroke-width="1.2" stroke="#00f" stroke-miterlimit="10" fill="none"/><path d="M228.387 146.063l-9.09 7.87" stroke-width="1.2" stroke="#000" stroke-miterlimit="10" fill="none"/><path d="M223.848 177.55l11.363 3.934" stroke-width="1.2" stroke="#00f" stroke-miterlimit="10" fill="none"/><path d="M235.21 181.484l11.364 3.934" stroke-width="1.2" stroke="#000" stroke-miterlimit="10" fill="none"/><path d="M220.848 172.05h7v11h-7zm0 0" fill="#fff"/><use xlink:href="#a" x="220.848" y="180.714" fill="#00f"/><path d="M246.574 185.418l18.176-15.746M244.684 179.566l14.543-12.597M264.75 169.672l-4.547-23.617M260.203 146.055l-11.363-3.934" stroke-width="1.2" stroke="#000" stroke-miterlimit="10" fill="none"/><path d="M248.84 142.12l-11.363-3.933" stroke-width="1.2" stroke="#00f" stroke-miterlimit="10" fill="none"/><path d="M256.078 150.617l-9.09-3.148" stroke-width="1.2" stroke="#000" stroke-miterlimit="10" fill="none"/><path d="M246.988 147.47l-9.09-3.15" stroke-width="1.2" stroke="#00f" stroke-miterlimit="10" fill="none"/><path d="M234.477 132.688h7v11h-7zm0 0" fill="#fff"/><use xlink:href="#a" x="234.477" y="141.351" fill="#00f"/></g></svg>
